static/youtube.svg

<svg width="800" height="800" viewBox="0 0 800 800" fill="none" xmlns="http://www.w3.org/2000/svg">
<path d="M497.433 284.2H302.567C264.333 284.2 233.333 314.867 233.333 352.667V449C233.333 486.833 264.333 517.467 302.567 517.467H497.433C535.667 517.467 566.667 486.8 566.667 449V352.667C566.667 314.833 535.667 284.2 497.433 284.2ZM450.633 405.533L359.467 448.533C358.909 448.797 358.294 448.915 357.678 448.878C357.062 448.841 356.466 448.649 355.944 448.32C355.422 447.991 354.992 447.535 354.693 446.996C354.394 446.456 354.236 445.85 354.233 445.233V356.567C354.239 355.942 354.404 355.329 354.713 354.786C355.022 354.243 355.465 353.788 355.999 353.464C356.533 353.14 357.141 352.958 357.766 352.935C358.39 352.912 359.01 353.049 359.567 353.333L450.7 399C453.4 400.4 453.367 404.233 450.633 405.533Z" fill="#1C1C1C"/>
<path d="M200 133.333C182.319 133.333 165.362 140.357 152.86 152.86C140.357 165.362 133.333 182.319 133.333 200V600C133.333 617.681 140.357 634.638 152.86 647.14C165.362 659.643 182.319 666.667 200 666.667H600C617.681 666.667 634.638 659.643 647.14 647.14C659.643 634.638 666.667 617.681 666.667 600V200C666.667 182.319 659.643 165.362 647.14 152.86C634.638 140.357 617.681 133.333 600 133.333H200ZM200 66.6667H600C635.362 66.6667 669.276 80.7142 694.281 105.719C719.286 130.724 733.333 164.638 733.333 200V600C733.333 635.362 719.286 669.276 694.281 694.281C669.276 719.286 635.362 733.333 600 733.333H200C164.638 733.333 130.724 719.286 105.719 694.281C80.7142 669.276 66.6667 635.362 66.6667 600V200C66.6667 164.638 80.7142 130.724 105.719 105.719C130.724 80.7142 164.638 66.6667 200 66.6667Z" fill="#1C1C1C"/>
</svg>

<svg xmlns="http://www.w3.org/2000/svg" width="800" height="800" fill="none" viewBox="0 0 800 800"><path fill="currentColor" d="M497.43 284.2H302.57c-38.24 0-69.24 30.67-69.24 68.47V449c0 37.83 31 68.47 69.24 68.47h194.86c38.24 0 69.24-30.67 69.24-68.47v-96.33c0-37.84-31-68.47-69.24-68.47m-46.8 121.33-91.16 43a3.67 3.67 0 0 1-5.24-3.3v-88.66a3.67 3.67 0 0 1 5.34-3.24L450.7 399a3.64 3.64 0 0 1-.07 6.53"/><path fill="currentColor" d="M200 133.33A66.66 66.66 0 0 0 133.33 200v400A66.66 66.66 0 0 0 200 666.67h400A66.66 66.66 0 0 0 666.67 600V200A66.66 66.66 0 0 0 600 133.33zm0-66.66h400A133.33 133.33 0 0 1 733.33 200v400A133.33 133.33 0 0 1 600 733.33H200A133.33 133.33 0 0 1 66.67 600V200A133.33 133.33 0 0 1 200 66.67"/></svg>
